packages/dnb-ui-lib/assets/icons/document_warning_medium.svg

<svg width="24" height="24" viewBox="0 0 24 24" fill="none" xmlns="http://www.w3.org/2000/svg">
<path d="M5 5H10.5M5 8H13.5M5 19H7.5M18.5 8.5V7.86631C18.5 7.62979 18.4162 7.40092 18.2634 7.22037L13.2996 1.35406C13.1096 1.12951 12.8304 1 12.5362 1L2.5 1.00001C1.94771 1.00001 1.5 1.44773 1.5 2.00001V22C1.5 22.5523 1.94772 23 2.5 23H7M16.7998 18.4226V15.6104M22.794 20.3987C22.9337 20.6753 22.9996 20.9828 22.9857 21.2919C22.9717 21.6009 22.8783 21.9013 22.7143 22.1645C22.5503 22.4277 22.3212 22.6449 22.0487 22.7955C21.7763 22.9461 21.4695 23.0251 21.1576 23.025H12.442C12.1301 23.0252 11.8233 22.9463 11.5508 22.7956C11.2783 22.645 11.0492 22.4278 10.8853 22.1645C10.7213 21.9013 10.628 21.6009 10.6143 21.2918C10.6005 20.9827 10.6667 20.6752 10.8066 20.3987L15.1633 12.7785C15.3152 12.477 15.5487 12.2234 15.8378 12.0461C16.1268 11.8689 16.46 11.775 16.7998 11.775C17.1396 11.775 17.4728 11.8689 17.7618 12.0461C18.0509 12.2234 18.2844 12.477 18.4363 12.7785L22.794 20.3987Z" stroke="black" stroke-width="1.5" stroke-linecap="round" stroke-linejoin="round"/>
<path d="M16.8 19.8105C16.657 19.8105 16.5171 19.853 16.3982 19.9324C16.2793 20.0119 16.1866 20.1248 16.1318 20.257C16.0771 20.3891 16.0628 20.5346 16.0907 20.6749C16.1186 20.8151 16.1875 20.944 16.2886 21.0452C16.3898 21.1463 16.5186 21.2152 16.6589 21.2431C16.7992 21.271 16.9446 21.2567 17.0768 21.2019C17.2089 21.1472 17.3219 21.0545 17.4013 20.9356C17.4808 20.8166 17.5232 20.6768 17.5232 20.5338C17.5232 20.342 17.447 20.158 17.3114 20.0224C17.1758 19.8867 16.9918 19.8105 16.8 19.8105Z" fill="black"/>
</svg>

<svg width="24" height="24" viewBox="0 0 24 24" fill="none" xmlns="http://www.w3.org/2000/svg"><path d="M5 5h5.5M5 8h8.5M5 19h2.5m11-10.5v-.634a1 1 0 00-.237-.646L13.3 1.354A1 1 0 0012.536 1H2.5a1 1 0 00-1 1v20a1 1 0 001 1H7m9.8-4.577V15.61m5.994 4.789a1.801 1.801 0 01-.08 1.765 1.842 1.842 0 01-1.556.861h-8.716a1.84 1.84 0 01-1.557-.86 1.8 1.8 0 01-.078-1.766l4.356-7.62a1.82 1.82 0 01.675-.733 1.84 1.84 0 012.598.732l4.358 7.62z" stroke="#000" stroke-width="1.5" stroke-linecap="round" stroke-linejoin="round"/><path d="M16.8 19.81a.724.724 0 100 1.448.724.724 0 000-1.447z" fill="#000"/></svg>
